X: 20271
T: MOZART'S CELEBRATED MILITARY WALTZ
C:
%R: waltz
N: Version V1 for ABC softare that doesn't understand cresc/dimuendo annotations.
B: Elias Howe "The Musician's Companion" 1843 p.27 #1
S: http://imslp.org/wiki/The_Musician's_Companion_(Howe,_Elias)
Z: 2015 John Chambers <jc:trillian.mit.edu>
M: 3/4
L: 1/8
K: Bb
% - - - - - - - - - - - - - - - - - - - - - - - - -
!p!F2 |\
"_cresc.".F2.F2.F2 | .F2"_dim...".F2.F2 | .F6 | B2z2F2 |\
"_cresc...".F2.F2.F2 | .F2"_dim...".F2.F2 | .F6 | c2z2F2 |\
.d2.d2.d2 | (e2c2)A2 | .B2.B2.B2 | (B2A2)G2 |\
F2B2d2 | .f2.e2.c2 | .c6 | B2z2 :|
|: A2 |\
(BA)(BA)(BA) | (BA)(BA)(Bc) | d4B2 | (F4f2) |\
(e4c2) | (BAGFGA) | B2(B2d2) | B2z2 :: (Bd) |\
(f=efgab) | B4(dB) | (ABcdef) | (e2d2)(Bd) |
(f=efgab) | B4dB | (FGABcd) | B4 :: D2 |\
d2d>dd2 | d4c2 | B2A2G2 | (^F2A2)D2 |\
d2d>dd2 | d4c2 | B2A2G2 | d4(Bd) |\
(f=efgab) | B4dB |
(ABcdef) | (e2d2)(Bd) |\
(f=efgab) | B4dB | (FGABcd) | B4 :: F2 |\
(d2B2).F2 | (B2F2).D2 | (E2c2).A2 | (B2d2).F2 |
(d2B2).F2 | (B2F2).D2 | (E2c2).A2 | B4 :: c2 |\
(c2B2).A2 | (A2G2).F2 | (BA)B2d2 | d4B2 |\
(c2B2).A2 | (A2G2).F2 | (Bc)d2c2 | B4 :|
% - - - - - - - - - - - - - - - - - - - - - - - - -

%%sep 1 1 500

